X: 2
T: Le Fontainbleau
%R: jig
B: Stewart "A Select Collection of Airs, Jigs, Marches and Reels", ca.1784, p.1 #2
F: http://imslp.org/wiki/A_Select_Collection_of_Airs,_Jigs,_Marches_and_Reels_%28Various%29
Z: 2017 John Chambers <jc:trillian.mit.edu>
M: 6/8
L: 1/8
K: G
% - - - - - - - - - -
d |\
B2G A2d | B2G A2d | B>cB A>GA | G2G G2d |\
B2G A2d | B2G A2d | B>cB A>GA | G2G G2 :: d |\
g2g f2f |
e2e d2d | c2c B2B | A>GA G2d |\
g2g f2f | e2e d2d | c2c B2B | A>GA G2 :: d |\
B2B Bed | ^c2c c2a |
geg fdf | e2e e2a |\
f2d e2a | f2d e2a | fgf e>de | d2d d2a |\
f2d e2a | f2d e2a | fgf e>de |
d2d d2 :: d |\
!p!dBd cAc | BGB A2d | dBd cAc | BGB A2d |\
!f!g2G GAG | G2G G2G | AcB AGF | G2G G2 :|

%%sep 1 1 500
%%sep 1 1 500

